Simply-Red-Circles/scalable/apps/quassel.svg

<svg xmlns="http://www.w3.org/2000/svg" width="48" height="48" viewBox="0 0 12.7 12.7"><path d="M6.35.06a6.29 6.29 0 0 0-6.29 6.3 6.29 6.29 0 0 0 6.3 6.28 6.29 6.29 0 0 0 6.28-6.29A6.29 6.29 0 0 0 6.35.06zM6.33 1a5.4 5.4 0 0 1 5.4 5.4 5.4 5.4 0 0 1-5.4 5.41 5.4 5.4 0 0 1-5.4-5.4A5.4 5.4 0 0 1 6.33 1zm.02.65a4.76 4.76 0 1 0 0 9.52 4.76 4.76 0 0 0 0-9.52zm0 1a3.77 3.77 0 1 1 0 7.53 3.77 3.77 0 0 1 0-7.54zM7.74 6a1.79 1.79 0 1 0 0 3.58 1.79 1.79 0 0 0 0-3.58zm.02.44l.15.06c0 .03-.04.08-.05.12-.04.08 0 .05.04.05.06.02-.02.08-.05.07-.03-.06-.04-.06-.11-.02-.07.03-.16.03-.19.1-.02.05-.07.1-.08.03-.02-.04-.08-.1-.02-.13.04-.03.02-.1-.03-.1-.03-.04-.11-.05-.05-.09l-.14.05c-.08 0 .05.02.07.01.03.04.05.08.1.09-.05.09-.11 0-.18-.03-.04-.03-.09 0-.12.04l.04-.01c.03 0 .05.01.06.04 0 .06-.07.01-.1-.02l-.02.04c-.05.04-.08 0-.04-.05.04-.03.06-.06.05-.12.02-.05.04.1.05 0 .06-.01.1-.06.15-.06.05 0 .07-.06.12-.05.09 0-.06.08.03.05.1-.04.21-.06.32-.07zm.63.23c.04.02.07.04.11.04.06 0 .1.02.03.04-.08-.01-.02.03.02.07.04 0 .06-.13.1-.05.24.22.4.5.45.83-.05.1-.08-.07-.16-.03-.04-.01-.08-.1-.07 0 0 .04.06.06.08.09.04-.09.08.01.07.07-.02.05-.07.08-.12.11-.06.05-.1.1.02.06 0 .07-.04.13-.06.2a.38.38 0 0 0-.1.16c0 .07-.02.15 0 .22 0 .05-.08.07-.1.1-.09.03.05.07 0 .1-.07.03-.02.08-.07.11-.03.03-.06.1-.1.1-.06-.02-.08.04-.14.03a.58.58 0 0 0-.05-.24.31.31 0 0 1 0-.26c0-.05-.05-.09-.03-.13.02-.06-.04-.08-.05-.12.02-.04.03-.1-.02-.13-.05.03-.08-.02-.11 0-.05.07-.07-.03-.1.02-.08.07-.15-.1-.2-.15 0-.04-.05-.09 0-.13.05-.04-.04-.07 0-.11.04-.11.13-.18.2-.26.08-.03.17-.06.25-.02l.1.09c.02-.05.08-.04.12-.02.04 0 .1.03.13 0 .05-.03.08-.08.01-.1-.09.04-.11-.1-.17-.07 0 .06-.02.1-.06.03 0-.05-.02-.1-.07-.11-.04 0 .08.06.02.1-.05.05-.02 0-.03-.03-.05-.01-.07-.09-.12-.06-.05 0-.05.05-.1.06 0 .05-.04.09-.09.1-.03-.04-.08-.02-.06-.1-.02-.05.05-.07.1-.08.06.01-.02-.07-.03-.08.04 0 .1-.02.11-.06 0-.07.11-.02.08-.08.01-.06.03-.01.05.01.05.03.09 0 .12-.04 0-.03.1-.08.07-.08-.08.04-.05-.07-.02-.1-.05-.01-.08.04-.1.07 0 .03 0 .1-.03.11-.04 0-.06-.08-.1-.03-.04.05-.04-.07-.03-.08.03-.04.1-.04.08-.1.05-.04.11-.05.17-.07zm-1.46.03c.04 0 .09.04.06.09-.03.06-.13.09-.19.13 0 .06.06.06.1.08.04.03.03.12.06.03.01-.05.08-.04.07-.1.02-.03.03-.11.08-.06.06.01 0 .1.07.05.06-.01.02.1.06.09.06.01.01.07.07.09-.03.07-.04.04-.05-.02a.27.27 0 0 1-.13.02c-.04.02-.14.05-.05.05.05 0 .13-.02.06.04-.02.06-.1 0-.12.07-.01.05-.1.03-.1.08a.2.2 0 0 1-.1.12c-.05.03-.02.09-.04.14-.03-.04-.05-.08-.1-.08-.04 0-.06.04-.11.03-.04.03-.09.06-.08.12-.01.04.01.1.06.1.05-.03.13-.13.1 0-.06.1.08 0 .05.1-.01.06.09.13.12.07.04-.03.07-.1.11-.04.04.04.09.04.14.03.04 0 .04.07.06.1.05 0 .1.03.1.08.07.07.18.1.26.15 0 .04 0 .1-.04.13-.05.04-.02.1-.01.16-.03.03-.03.1-.09.1-.04 0-.08.06-.05.1l-.06.12c-.06 0-.07.05-.1.09-.01.1-.14 0-.2-.04l.02-.14a.2.2 0 0 1-.02-.14c.02-.06-.03-.1-.08-.14-.06-.04-.07-.1-.1-.16-.05-.05-.04-.1-.02-.14-.02-.04.03-.07.04-.11 0-.04.05-.1-.01-.1-.05.02-.08-.03-.12-.06-.03-.06-.1-.05-.16-.08s-.11-.07-.13-.14c.03-.3.16-.6.37-.83.05-.1.18-.08.2-.18zm1.06.12c.03 0 .03.05.05.08.03.04.07.07 0 .1-.07.04-.07 0-.05-.05.01-.05-.03-.08-.02-.13h.02zm-.08.08c.02.03.05.06 0 .07-.04.03-.05-.07 0-.07zm.72.64c-.03.02 0 .05 0 .07.03.08.1.14.1.22-.01.07.13.11.07.05-.03-.04.03-.08-.03-.1-.04-.08-.07-.18-.14-.24z" fill="#a02c2c"/></svg>

<?xml version="1.0" encoding="UTF-8" standalone="no"?>
<svg
   xmlns:dc="http://purl.org/dc/elements/1.1/"
   xmlns:cc="http://creativecommons.org/ns#"
   xmlns:rdf="http://www.w3.org/1999/02/22-rdf-syntax-ns#"
   xmlns:svg="http://www.w3.org/2000/svg"
   xmlns="http://www.w3.org/2000/svg"
   xmlns:sodipodi="http://sodipodi.sourceforge.net/DTD/sodipodi-0.dtd"
   xmlns:inkscape="http://www.inkscape.org/namespaces/inkscape"
   width="48"
   height="48"
   viewBox="0 0 12.7 12.7"
   version="1.1"
   id="svg4"
   sodipodi:docname="quassel.svg"
   inkscape:version="0.92.4 (5da689c313, 2019-01-14)">
  <metadata
     id="metadata10">
    <rdf:RDF>
      <cc:Work
         rdf:about="">
        <dc:format>image/svg+xml</dc:format>
        <dc:type
           rdf:resource="http://purl.org/dc/dcmitype/StillImage" />
        <dc:title></dc:title>
      </cc:Work>
    </rdf:RDF>
  </metadata>
  <defs
     id="defs8" />
  <sodipodi:namedview
     pagecolor="#ffffff"
     bordercolor="#666666"
     borderopacity="1"
     objecttolerance="10"
     gridtolerance="10"
     guidetolerance="10"
     inkscape:pageopacity="0"
     inkscape:pageshadow="2"
     inkscape:window-width="1087"
     inkscape:window-height="480"
     id="namedview6"
     showgrid="false"
     inkscape:zoom="4.9166667"
     inkscape:cx="2.1355932"
     inkscape:cy="24"
     inkscape:window-x="0"
     inkscape:window-y="25"
     inkscape:window-maximized="0"
     inkscape:current-layer="svg4" />
  <path
     d="M 6.35,0.06 A 6.29,6.29 0 0 0 0.06,6.36 6.29,6.29 0 0 0 6.36,12.64 6.29,6.29 0 0 0 12.64,6.35 6.29,6.29 0 0 0 6.35,0.06 Z M 6.33,1 a 5.4,5.4 0 0 1 5.4,5.4 5.4,5.4 0 0 1 -5.4,5.41 A 5.4,5.4 0 0 1 0.93,6.41 5.4,5.4 0 0 1 6.33,1 Z m 0.02,0.65 a 4.76,4.76 0 1 0 0,9.52 4.76,4.76 0 0 0 0,-9.52 z m 0,1 a 3.77,3.77 0 1 1 0,7.53 3.77,3.77 0 0 1 0,-7.54 z M 7.74,6 a 1.79,1.79 0 1 0 0,3.58 1.79,1.79 0 0 0 0,-3.58 z M 7.76,6.44 7.91,6.5 C 7.91,6.53 7.87,6.58 7.86,6.62 7.82,6.7 7.86,6.67 7.9,6.67 7.96,6.69 7.88,6.75 7.85,6.74 7.82,6.68 7.81,6.68 7.74,6.72 7.67,6.75 7.58,6.75 7.55,6.82 7.53,6.87 7.48,6.92 7.47,6.85 7.45,6.81 7.39,6.75 7.45,6.72 7.49,6.69 7.47,6.62 7.42,6.62 7.39,6.58 7.31,6.57 7.37,6.53 L 7.23,6.58 C 7.15,6.58 7.28,6.6 7.3,6.59 7.33,6.63 7.35,6.67 7.4,6.68 7.35,6.77 7.29,6.68 7.22,6.65 7.18,6.62 7.13,6.65 7.1,6.69 L 7.14,6.68 C 7.17,6.68 7.19,6.69 7.2,6.72 7.2,6.78 7.13,6.73 7.1,6.7 L 7.08,6.74 C 7.03,6.78 7,6.74 7.04,6.69 7.08,6.66 7.1,6.63 7.09,6.57 7.11,6.52 7.13,6.67 7.14,6.57 7.2,6.56 7.24,6.51 7.29,6.51 7.34,6.51 7.36,6.45 7.41,6.46 7.5,6.46 7.35,6.54 7.44,6.51 7.54,6.47 7.65,6.45 7.76,6.44 Z M 8.39,6.67 C 8.43,6.69 8.46,6.71 8.5,6.71 8.56,6.71 8.6,6.73 8.53,6.75 8.45,6.74 8.51,6.78 8.55,6.82 8.59,6.82 8.61,6.69 8.65,6.77 8.89,6.99 9.05,7.27 9.1,7.6 9.05,7.7 9.02,7.53 8.94,7.57 8.9,7.56 8.86,7.47 8.87,7.57 8.87,7.61 8.93,7.63 8.95,7.66 8.99,7.57 9.03,7.67 9.02,7.73 9,7.78 8.95,7.81 8.9,7.84 8.84,7.89 8.8,7.94 8.92,7.9 8.92,7.97 8.88,8.03 8.86,8.1 a 0.38,0.38 0 0 0 -0.1,0.16 c 0,0.07 -0.02,0.15 0,0.22 0,0.05 -0.08,0.07 -0.1,0.1 -0.09,0.03 0.05,0.07 0,0.1 C 8.59,8.71 8.64,8.76 8.59,8.79 8.56,8.82 8.53,8.89 8.49,8.89 8.43,8.87 8.41,8.93 8.35,8.92 A 0.58,0.58 0 0 0 8.3,8.68 0.31,0.31 0 0 1 8.3,8.42 C 8.3,8.37 8.25,8.33 8.27,8.29 8.29,8.23 8.23,8.21 8.22,8.17 8.24,8.13 8.25,8.07 8.2,8.04 8.15,8.07 8.12,8.02 8.09,8.04 8.04,8.11 8.02,8.01 7.99,8.06 7.91,8.13 7.84,7.96 7.79,7.91 7.79,7.87 7.74,7.82 7.79,7.78 7.84,7.74 7.75,7.71 7.79,7.67 7.83,7.56 7.92,7.49 7.99,7.41 8.07,7.38 8.16,7.35 8.24,7.39 l 0.1,0.09 C 8.36,7.43 8.42,7.44 8.46,7.46 c 0.04,0 0.1,0.03 0.13,0 C 8.64,7.43 8.67,7.38 8.6,7.36 8.51,7.4 8.49,7.26 8.43,7.29 8.43,7.35 8.41,7.39 8.37,7.32 8.37,7.27 8.35,7.22 8.3,7.21 8.26,7.21 8.38,7.27 8.32,7.31 8.27,7.36 8.3,7.31 8.29,7.28 8.24,7.27 8.22,7.19 8.17,7.22 8.12,7.22 8.12,7.27 8.07,7.28 8.07,7.33 8.03,7.37 7.98,7.38 7.95,7.34 7.9,7.36 7.92,7.28 7.9,7.23 7.97,7.21 8.02,7.2 8.08,7.21 8,7.13 7.99,7.12 8.03,7.12 8.09,7.1 8.1,7.06 8.1,6.99 8.21,7.04 8.18,6.98 8.19,6.92 8.21,6.97 8.23,6.99 8.28,7.02 8.32,6.99 8.35,6.95 8.35,6.92 8.45,6.87 8.42,6.87 8.34,6.91 8.37,6.8 8.4,6.77 8.35,6.76 8.32,6.81 8.3,6.84 8.3,6.87 8.3,6.94 8.27,6.95 8.23,6.95 8.21,6.87 8.17,6.92 8.13,6.97 8.13,6.85 8.14,6.84 8.17,6.8 8.24,6.8 8.22,6.74 8.27,6.7 8.33,6.69 8.39,6.67 Z M 6.93,6.7 C 6.97,6.7 7.02,6.74 6.99,6.79 6.96,6.85 6.86,6.88 6.8,6.92 6.8,6.98 6.86,6.98 6.9,7 6.94,7.03 6.93,7.12 6.96,7.03 6.97,6.98 7.04,6.99 7.03,6.93 7.05,6.9 7.06,6.82 7.11,6.87 7.17,6.88 7.11,6.97 7.18,6.92 7.24,6.91 7.2,7.02 7.24,7.01 7.3,7.02 7.25,7.08 7.31,7.1 7.28,7.17 7.27,7.14 7.26,7.08 A 0.27,0.27 0 0 1 7.13,7.1 C 7.09,7.12 6.99,7.15 7.08,7.15 7.13,7.15 7.21,7.13 7.14,7.19 7.12,7.25 7.04,7.19 7.02,7.26 7.01,7.31 6.92,7.29 6.92,7.34 6.9,7.4 6.86,7.44 6.82,7.46 6.77,7.49 6.8,7.55 6.78,7.6 6.75,7.56 6.73,7.52 6.68,7.52 6.64,7.52 6.62,7.56 6.57,7.55 6.53,7.58 6.48,7.61 6.49,7.67 6.48,7.71 6.5,7.77 6.55,7.77 6.6,7.74 6.68,7.64 6.65,7.77 6.59,7.87 6.73,7.77 6.7,7.87 6.69,7.93 6.79,8 6.82,7.94 6.86,7.91 6.89,7.84 6.93,7.9 c 0.04,0.04 0.09,0.04 0.14,0.03 0.04,0 0.04,0.07 0.06,0.1 0.05,0 0.1,0.03 0.1,0.08 0.07,0.07 0.18,0.1 0.26,0.15 0,0.04 0,0.1 -0.04,0.13 C 7.4,8.43 7.43,8.49 7.44,8.55 7.41,8.58 7.41,8.65 7.35,8.65 7.31,8.65 7.27,8.71 7.3,8.75 L 7.24,8.87 C 7.18,8.87 7.17,8.92 7.14,8.96 7.13,9.06 7,8.96 6.94,8.92 L 6.96,8.78 A 0.2,0.2 0 0 1 6.94,8.64 C 6.96,8.58 6.91,8.54 6.86,8.5 6.8,8.46 6.79,8.4 6.76,8.34 6.71,8.29 6.72,8.24 6.74,8.2 6.72,8.16 6.77,8.13 6.78,8.09 6.78,8.05 6.83,7.99 6.77,7.99 6.72,8.01 6.69,7.96 6.65,7.93 6.62,7.87 6.55,7.88 6.49,7.85 6.43,7.82 6.38,7.78 6.36,7.71 6.39,7.41 6.52,7.11 6.73,6.88 6.78,6.78 6.91,6.8 6.93,6.7 Z m 1.06,0.12 c 0.03,0 0.03,0.05 0.05,0.08 0.03,0.04 0.07,0.07 0,0.1 C 7.97,7.04 7.97,7 7.99,6.95 8,6.9 7.96,6.87 7.97,6.82 Z M 7.91,6.9 c 0.02,0.03 0.05,0.06 0,0.07 C 7.87,7 7.86,6.9 7.91,6.9 Z m 0.72,0.64 c -0.03,0.02 0,0.05 0,0.07 0.03,0.08 0.1,0.14 0.1,0.22 C 8.72,7.9 8.86,7.94 8.8,7.88 8.77,7.84 8.83,7.8 8.77,7.78 8.73,7.7 8.7,7.6 8.63,7.54 Z"
     id="path2"
     inkscape:connector-curvature="0"
     style="fill:#a02c2c" />
</svg>
